X: 15
T:Smith's Hornpipe
M:2/4
L:1/8
R:Hornpipe
K:Bb
F2|.B2gf edcB|ABcd eFAB|BABA dced|fgec BAGF|!
.B2gf edcB|ABcB AGFE|DBEB FBGB|AgfA B2:|!
F2|D2FF BFdB|E2GG cGec|dBgf edcB|.Af=ef ecAF|!
D2FF BFdB|E2GG cAec|dfBd cgec|AFGA B2
% Output from ABC2Win  Version 2.0  on 4/25/96
